X:1
T:Title
%%score ( 1 2 ) { 3 | 4 }
L:1/8
Q:1/4=115
M:3/4
K:C
V:1 treble nm="Grand Piano, Staff 1"
V:2 treble 
V:3 bass nm="Choir Pad, Ombersley, LM"
V:4 bass 
V:1
 [CE]2 [B,D]2 C2 | [CF]4 [DF]2 | F2- [CF]2 [B,F]2 | [CE]6 | [CE]2 [CF]2 [CG]2 | [CA]4 [CA]2 | %6
w: By~William~Henry~Gladstone,~1872 * *||||||
 [Fd]4 [Dc]2 | [DB]6 | [CG]2 [CA]2 [EB]2 | [Ec]4 [Fd]2 | [Ee]2 [Fd]2 [Gc]2 | [CA]6 | %12
w: ||||||
 [CG]2 [B,E]2 [B,D]2 | C4 [CF]2 | [CE]4 [B,D]2 | C6- | C2 z2 z2 |] %17
w: |||||
V:2
 x6 | x6 | D2 z2 z2 | x6 | x6 | x6 | x6 | x6 | x6 | x6 | x6 | x6 | x6 | x6 | x6 | x6 | x6 |] %17
V:3
 G,2 F,2 E,2 | A,4 A,2 | G,4 G,2 | G,6 | G,2 F,2 E,2 | F,4 F,2 | A,4 A,2 | G,6 | E,2 A,2 ^G,2 | %9
 A,4 B,2 | C2 B,2 C2 | C6 | C2[K:bass] G,2 F,2 | E,4 A,2 | G,4 F,2 | E,6- | E,2 z2 z2 |] %17
V:4
 C,2 C,2 C,2 | C,4 C,2 | B,,2 A,,2 G,,2 | C,6 | C,2 A,,2 C,2 | z6 | D,4 F,2 | z6 | C,2 F,2 E,2 | %9
 z2 z2 G,2 | C,2 D,2 E,2 | F,6 | E,2 z2 G,,2 | A,,4 F,,2 | G,,4 G,,2 | C,6- | C,2 z2 z2 |] %17

